X:1
T:Title
%%score { 1 | ( 2 3 ) }
L:1/8
M:6/8
K:F
V:1 treble nm="Grand Piano"
V:2 bass 
V:3 bass 
V:1
 z3 z2[Q:1/4=87] [Fc] | [Ec]>[EG][FA] [GB]>[FA][EG] | F3- F2 D | C>FA c>BA | %4
[M:5/8] [EG]-[EG]- [EG]3 |[M:1/8] [Ec] |[M:3/4] [Ec]>[EG] [FA][GB]- [GB]/[FA]/[B,EG] | %7
 [A,CF]4- [A,CF][B,D]/D/ | C>F A[FA] [FA][EG] |[M:5/8] [CF]-[CF]- [CF]3 |[M:1/8] [CF] | %11
[M:3/4] [EG]>[FA] [GB][GB]- [GB]/[FA]/[EG] | Ac A[Fc] [FA][FAc] | G>G c=B- B/A/G | %14
[M:5/8] [Ec]-[Ec]- [Ec]3 |[M:1/8] [GB] |[M:3/4] A>A AA- A/c/c | [Dc]>[DB] [DB] [DB]2 [DFB] | %18
 [CFA]>G FE- E/F/G |[M:5/8] F-F- F3 |[M:1/8] c |[M:3/4] c>A cF- F/G/A | [DB]4- [DB]A | %23
 G>d c=B- B/A/G |[M:5/8] [Ec]-[Ec]- [Ec]3 |[M:1/8] [GB] |[M:3/4] A>A AA- A/c/c | %27
 [Dc]>[DB] [DB] [DB]2 [DFB] | [CFA]>G FE- E/F/G |[M:13/8] F-F- F3 z z z z z z z2 |] %30
V:2
 z3 z2 [F,A,] | [C,G,]>[C,C][C,C] [C,C]>[C,C][C,B,] | [F,A,C]3- [F,A,C]2 [F,B,] | %3
 [F,A,]>[F,A,C][K:treble][F,CF] [A,CF]>[K:bass][G,CE][F,CF] |[M:5/8] [C,C]-[C,C]- [C,C]3 | %5
[M:1/8] [C,G,] |[M:3/4] [C,G,]>[C,C] [C,C][C,C]- [C,C]/[C,C]/C, | F,4- F, z/ B,/ | %8
 [F,A,]>[F,A,C] [F,CF][C,C] [C,C][C,B,] |[M:5/8] [F,A,]-[F,A,]- [F,A,]3 |[M:1/8] [F,A,] | %11
[M:3/4] [C,C]>[C,C] [C,C][C,C]- [C,C]/[C,C]/[C,C] | FF F A,2[K:bass] [F,C] | %13
 [G,CE]>[K:treble][G,CE] [G,EG][G,DF]- [G,DF]/[G,CF]/[G,B,F] |[M:5/8][K:bass] [C,C]-[C,C]- [C,C]3 | %15
[M:1/8] [E,C] |[M:3/4] [F,CF]>[F,CF] [F,CF][F,C_E]- [F,CE]/[F,A,E]/[F,A,E] | %17
 [B,,F,]>[B,,F,] [B,,F,] [B,,F,]2 B,, | C,>[C,B,C] [C,A,C][C,G,C]- [C,G,C]/[C,A,C]/[C,B,C] | %19
[M:5/8] [F,A,C]-[F,A,C]- [F,A,C]3 |[M:1/8] [F,A,F] | %21
[M:3/4] [F,A,F]>[F,CF] [F,A,F][F,A,]- [F,A,]/[F,B,E]/[F,C_E] | [B,,B,]4- [B,,B,][K:treble][F,CF] | %23
 [G,CE]>[G,FG] [G,EG][G,DF]- [G,DF]/[G,=B,F]/[G,F] |[M:5/8][K:bass] [C,G,]-[C,G,]- [C,G,]3 | %25
[M:1/8] [E,C] |[M:3/4] [F,CF]>[F,CF] [F,CF][F,C_E]- [F,CE]/[F,A,E]/[F,A,E] | %27
 [B,,F,]>[B,,F,] [B,,F,] [B,,F,]2 B,, | C,>[C,B,C] [C,A,C][C,G,C]- [C,G,C]/[C,A,C]/[C,B,C] | %29
[M:13/8] [F,A,C]-[F,A,C]- [F,A,C]3 z z z z z z z2 |] %30
V:3
 x6 | x6 | x6 | x2[K:treble] x5/2[K:bass] x3/2 |[M:5/8] x5 |[M:1/8] x |[M:3/4] x6 | z2 z2 z F, | %8
 x6 |[M:5/8] x5 |[M:1/8] x |[M:3/4] x6 | [F,-C]4 F,2[K:bass] | x3/2[K:treble] x9/2 | %14
[M:5/8][K:bass] x5 |[M:1/8] x |[M:3/4] x6 | x6 | x6 |[M:5/8] x5 |[M:1/8] x |[M:3/4] x6 | %22
 x5[K:treble] x | x6 |[M:5/8][K:bass] x5 |[M:1/8] x |[M:3/4] x6 | x6 | x6 |[M:13/8] x13 |] %30

